X:50
% %NRChange 2008-02-24
T: Montague Processional, The
C: David Kaynor
M: 4/4
Q: 1/4=150
L: 1/8
K: D
%P:A
"D"D3FA2Bc | d6 ef | "G"g3fe2d2 | "Em"B6 ef | "G"g2fe "A"a3 g|
"D"f2d2"G"g2ag | "D"fafd "A7"egec |[1 "D"d2 AG "A7"FEDC :|[2"D"d6 fg |]
%P:B
"D"a3g"Ay"f2ec | "D"d6ef | "G"g3fe2d2 | "Em"B6ef | "G"g2fe"A"a3g |"D"f2d2"G"g2ag |
 "D"fafd "A7"egec |[1 "D"d4 "A7"defg :|[2 "D"d8 |]

